X: 20042
T: HE STOLE MY TENDER HEART AWAY.
Q: "Not too slow."
%R: air, march, reel
B: W. Hamilton "Universal Tune-Book" Vol. 2 Glasgow 1846 p.4 #2
S: http://s3-eu-west-1.amazonaws.com/itma.dl.printmaterial/book_pdfs/hamiltonvol2web.pdf
Z: 2016 John Chambers <jc:trillian.mit.edu>
M: C
L: 1/8
K: Bb
%%stretchstaff 0
% - - - - - - - - - - - - - - - - - - - - - - - - -
F |\
(Bc)(de) f2f2 | ({f}ed)(ef) {e}d2zf |\
e2c2 d3B | c2A2 B2zF |\
(Bc)(de) f2f2 | ({f}ed)(ef) {e}d2zf |\
e2c2 d3B | c2A2 B2zF |\
F3F G2G2 | A3A B2zB |
c2zc d2d2 | =e3e {eg}f2zf |\
f2d2 d2zf | e2c2 c2zB |\
c2B2 A2B2 | e2d2 (d2c)f |\
f2d2 d2zf | e2c2 c2ze |\
(dc)(ed) c2B2 | (dc)(BA) B2z2 |]
% - - - - - - - - - - - - - - - - - - - - - - - - -

%%sep 1 1 500
%%sep 1 1 500

